other/SimpleNote.svg

<?xml version="1.0" encoding="UTF-8" standalone="no"?>
<svg
   xmlns:dc="http://purl.org/dc/elements/1.1/"
   xmlns:cc="http://creativecommons.org/ns#"
   xmlns:rdf="http://www.w3.org/1999/02/22-rdf-syntax-ns#"
   xmlns:svg="http://www.w3.org/2000/svg"
   xmlns="http://www.w3.org/2000/svg"
   xmlns:sodipodi="http://sodipodi.sourceforge.net/DTD/sodipodi-0.dtd"
   xmlns:inkscape="http://www.inkscape.org/namespaces/inkscape"
   width="48"
   height="48"
   viewBox="0 0 48 48"
   version="1.1"
   id="svg4"
   sodipodi:docname="SimpleNote.svg"
   inkscape:version="0.92.3 (2405546, 2018-03-11)">
  <metadata
     id="metadata10">
    <rdf:RDF>
      <cc:Work
         rdf:about="">
        <dc:format>image/svg+xml</dc:format>
        <dc:type
           rdf:resource="http://purl.org/dc/dcmitype/StillImage" />
        <dc:title />
      </cc:Work>
    </rdf:RDF>
  </metadata>
  <defs
     id="defs8" />
  <sodipodi:namedview
     pagecolor="#7e7e7e"
     bordercolor="#666666"
     borderopacity="1"
     objecttolerance="10"
     gridtolerance="10"
     guidetolerance="10"
     inkscape:pageopacity="0"
     inkscape:pageshadow="2"
     inkscape:window-width="1920"
     inkscape:window-height="1046"
     id="namedview6"
     showgrid="false"
     inkscape:zoom="13.906433"
     inkscape:cx="7.7536362"
     inkscape:cy="25.638782"
     inkscape:window-x="0"
     inkscape:window-y="0"
     inkscape:window-maximized="1"
     inkscape:current-layer="svg4" />
  <path
     style="fill:#ffffff"
     d="M 24 2 A 22 22 0 0 0 2 24 A 22 22 0 0 0 24 46 A 22 22 0 0 0 46 24 A 22 22 0 0 0 24 2 z M 25.023438 7.8632812 C 25.37693 7.8574851 25.740089 7.8760617 26.111328 7.9199219 C 29.072574 8.2697803 31.411489 9.2103966 33.771484 11 C 36.918596 13.386479 39.106718 16.850015 40.023438 20.892578 C 40.303322 22.126817 40.343788 25.892799 40.089844 27.070312 C 39.771287 28.547418 39.246278 30.128412 38.716797 31.203125 C 38.165379 32.322365 36.874335 34.329588 36.703125 34.333984 C 36.648125 34.335384 36.603516 33.799736 36.603516 33.144531 C 36.603516 27.449797 32.546393 22.656441 25.9375 20.542969 C 23.728608 19.836583 22.786835 19.437722 21.777344 18.777344 C 20.679694 18.059296 19.741103 17.040007 19.283203 16.070312 C 18.975485 15.418657 18.9375 15.173054 18.9375 13.863281 C 18.9375 12.422869 18.947434 12.364523 19.447266 11.353516 C 20.539648 9.1439891 22.54898 7.903854 25.023438 7.8632812 z M 12.353516 12.736328 C 12.417936 12.736328 12.471399 13.411328 12.472656 14.236328 C 12.477456 17.392431 13.682931 20.09911 16.130859 22.449219 C 17.910462 24.157707 19.990529 25.367126 22.478516 26.142578 C 25.464781 27.073332 26.971957 27.820906 28.261719 29.009766 C 30.916551 31.456904 30.853517 35.717462 28.123047 38.404297 C 26.513824 39.987802 24.310248 40.647234 21.703125 40.328125 C 16.459078 39.686258 11.570787 36.056968 9.2734375 31.097656 C 8.0618255 28.482137 7.7344899 26.966667 7.7421875 24.003906 C 7.7474675 21.972014 7.7868681 21.587957 8.1191406 20.292969 C 8.6637117 18.170573 9.4595484 16.400251 10.587891 14.802734 C 11.251302 13.86347 12.214593 12.736328 12.353516 12.736328 z "
     id="circle2" />
</svg>

<svg width="48" height="48" version="1.1" viewBox="0 0 48 48" xmlns="http://www.w3.org/2000/svg">
 <path d="m24 2a22 22 0 0 0-22 22 22 22 0 0 0 22 22 22 22 0 0 0 22-22 22 22 0 0 0-22-22zm1.0234 5.8633c0.35349-0.0057961 0.71665 0.01278 1.0879 0.056641 2.9612 0.34986 5.3002 1.2905 7.6602 3.0801 3.1471 2.3865 5.3352 5.85 6.252 9.8926 0.27988 1.2342 0.32035 5.0002 0.066406 6.1777-0.31856 1.4771-0.84357 3.0581-1.373 4.1328-0.55142 1.1192-1.8425 3.1265-2.0137 3.1309-0.055 0.0014-0.099609-0.53425-0.099609-1.1895 0-5.6947-4.0571-10.488-10.666-12.602-2.2089-0.70639-3.1507-1.1052-4.1602-1.7656-1.0976-0.71805-2.0362-1.7373-2.4941-2.707-0.30772-0.65166-0.3457-0.89726-0.3457-2.207 0-1.4404 0.009934-1.4988 0.50977-2.5098 1.0924-2.2095 3.1017-3.4497 5.5762-3.4902zm-12.67 4.873c0.06442 0 0.11788 0.675 0.11914 1.5 0.0048 3.1561 1.2103 5.8628 3.6582 8.2129 1.7796 1.7085 3.8597 2.9179 6.3477 3.6934 2.9863 0.93075 4.4934 1.6783 5.7832 2.8672 2.6548 2.4471 2.5918 6.7077-0.13867 9.3945-1.6092 1.5835-3.8128 2.2429-6.4199 1.9238-5.244-0.64187-10.132-4.2712-12.43-9.2305-1.2116-2.6155-1.5389-4.131-1.5312-7.0938 0.00528-2.0319 0.044681-2.4159 0.37695-3.7109 0.54457-2.1224 1.3404-3.8927 2.4688-5.4902 0.66341-0.93926 1.6267-2.0664 1.7656-2.0664z" fill="#fff"/>
</svg>
